!!!OTL: WAS FUEHR ICH DENN SO FUERN TRAURIGES LEBEN
!!!ARE: Europa, Mitteleuropa, Deutschland, Schlesien
!!!SCT: E0702
!!!YEM: Copyright 1995, estate of Helmut Schaffrath.
**kern
*ICvox
*Ivox
*M2/4
*k[f#]
*e:
{8e
=1
8b
8a
8gn
8a
=2
4.f#}
{8gn
=3
8b
8a
8gn
8a
=4
4.f#}
{8f#
=5
4f#
4f#
=6
4.b}
{8b
=7
8b
8a
8gn
8e
=8
4.f#}
{8f#
=9
4f#
8f#
8f#
=10
4.b}
{8b
=11
8b
8a
8gn
8b
=12
4a
8r}
{8a
=13
4b
4b
=14
8gn
8f#
8e}
{8gn
=15
8b
8a
8f#
8gn
=16
4e
8r}
==
!!!AGN: Liebes - Lied, Leid, Klage
!!!ONB: ESAC (Essen Associative Code) Database: ERK2
!!!AMT: simple duple
!!!AIN: vox
!!!EED: Helmut Schaffrath
!!!EEV: 1.0
*-
